X: 3
T: The Holy Land
R: reel
M: 4/4
L: 1/8
K: Dmaj
|: A |~B3 d ~A2 Bc | d ~F3 DFA=c | BG ~G2 ABdf | af (3efg fdd :||e | f2 df dfaf | gfed (3Bcd eg | f2 df dfaf | gfeg fdde |f2 df dfaf | gfed cdeg | dfaf g2 ag | (3fgf eg fdd ||


Tune 616	Setting 13633

